dist/assets/img/questions/3/backdrop_1200.svg

<svg width="669" height="388" viewBox="0 0 669 388" fill="none" xmlns="http://www.w3.org/2000/svg">
<g filter="url(#filter0_di_1419_48757)">
<path fill-rule="evenodd" clip-rule="evenodd" d="M279.301 34.513C204.73 25.8284 139.467 18.2278 92.4033 68.1034C51.2166 111.75 45.7608 152.653 66.8534 191.581C72.1681 201.389 71.979 213.913 62.2959 219.453C55.3877 223.405 47.8656 226.346 40.8638 229.084C40.7077 229.145 40.7232 229.37 40.8859 229.41C55.5042 233.047 69.7204 230.795 81.1311 226.937C86.6233 225.08 92.7955 226.246 96.91 230.331C117.524 250.794 145.053 270.751 178.027 290.326C287.324 355.207 439.364 347.593 530.54 284.131C615.593 224.931 661.103 166.216 600.08 89.8188C555.49 33.9947 493.168 36.8739 423.641 40.0861C398.018 41.2698 371.416 42.4988 344.362 40.8514C322.069 39.4938 300.316 36.9604 279.301 34.513Z" fill="white"/>
</g>
<defs>
<filter id="filter0_di_1419_48757" x="0.754883" y="0.173828" width="667.376" height="387.322" filterUnits="userSpaceOnUse" color-interpolation-filters="sRGB">
<feFlood flood-opacity="0" result="BackgroundImageFix"/>
<feColorMatrix in="SourceAlpha" type="matrix" values="0 0 0 0 0 0 0 0 0 0 0 0 0 0 0 0 0 0 127 0" result="hardAlpha"/>
<feOffset dy="12"/>
<feGaussianBlur stdDeviation="20"/>
<feComposite in2="hardAlpha" operator="out"/>
<feColorMatrix type="matrix" values="0 0 0 0 0.909804 0 0 0 0 0.313726 0 0 0 0 0.470588 0 0 0 1 0"/>
<feBlend mode="normal" in2="BackgroundImageFix" result="effect1_dropShadow_1419_48757"/>
<feBlend mode="normal" in="SourceGraphic" in2="effect1_dropShadow_1419_48757" result="shape"/>
<feColorMatrix in="SourceAlpha" type="matrix" values="0 0 0 0 0 0 0 0 0 0 0 0 0 0 0 0 0 0 127 0" result="hardAlpha"/>
<feOffset dy="-4"/>
<feGaussianBlur stdDeviation="4"/>
<feComposite in2="hardAlpha" operator="arithmetic" k2="-1" k3="1"/>
<feColorMatrix type="matrix" values="0 0 0 0 0.909804 0 0 0 0 0.313726 0 0 0 0 0.470588 0 0 0 0.48 0"/>
<feBlend mode="normal" in2="shape" result="effect2_innerShadow_1419_48757"/>
</filter>
</defs>
</svg>

<svg width="669" height="388" viewBox="0 0 669 388" fill="none" xmlns="http://www.w3.org/2000/svg"><g filter="url(#filter0_di_1419_48757)"><path fill-rule="evenodd" clip-rule="evenodd" d="M279.301 34.513c-74.571-8.685-139.834-16.285-186.898 33.59-41.186 43.647-46.642 84.55-25.55 123.478 5.315 9.808 5.126 22.332-4.557 27.872-6.908 3.952-14.43 6.893-21.432 9.631-.156.061-.14.286.022.326 14.618 3.637 28.834 1.385 40.245-2.473 5.492-1.857 11.665-.691 15.779 3.394 20.614 20.463 48.143 40.42 81.117 59.995 109.297 64.881 261.337 57.267 352.513-6.195 85.053-59.2 130.563-117.915 69.54-194.312-44.59-55.824-106.912-52.945-176.439-49.733-25.623 1.184-52.225 2.413-79.279.765-22.293-1.357-44.046-3.89-65.061-6.338z" fill="#fff"/></g><defs><filter id="filter0_di_1419_48757" x=".755" y=".174" width="667.376" height="387.322" filterUnits="userSpaceOnUse" color-interpolation-filters="sRGB"><feFlood flood-opacity="0" result="BackgroundImageFix"/><feColorMatrix in="SourceAlpha" values="0 0 0 0 0 0 0 0 0 0 0 0 0 0 0 0 0 0 127 0" result="hardAlpha"/><feOffset dy="12"/><feGaussianBlur stdDeviation="20"/><feComposite in2="hardAlpha" operator="out"/><feColorMatrix values="0 0 0 0 0.909804 0 0 0 0 0.313726 0 0 0 0 0.470588 0 0 0 1 0"/><feBlend in2="BackgroundImageFix" result="effect1_dropShadow_1419_48757"/><feBlend in="SourceGraphic" in2="effect1_dropShadow_1419_48757" result="shape"/><feColorMatrix in="SourceAlpha" values="0 0 0 0 0 0 0 0 0 0 0 0 0 0 0 0 0 0 127 0" result="hardAlpha"/><feOffset dy="-4"/><feGaussianBlur stdDeviation="4"/><feComposite in2="hardAlpha" operator="arithmetic" k2="-1" k3="1"/><feColorMatrix values="0 0 0 0 0.909804 0 0 0 0 0.313726 0 0 0 0 0.470588 0 0 0 0.48 0"/><feBlend in2="shape" result="effect2_innerShadow_1419_48757"/></filter></defs></svg>
